icons/virus_alt_fill.svg

<svg width="48" height="48" viewBox="0 0 48 48" fill="none" xmlns="http://www.w3.org/2000/svg">
<path fill-rule="evenodd" clip-rule="evenodd" d="M19.3999 6.8999C19.3999 6.34762 19.8476 5.8999 20.3999 5.8999H27.5999C28.1522 5.8999 28.5999 6.34762 28.5999 6.8999C28.5999 7.45219 28.1522 7.8999 27.5999 7.8999H24.9999V10.5364C27.9759 10.7543 30.684 11.9369 32.8127 13.7729L34.7357 11.8499L33.1928 10.307C32.8023 9.91648 32.8023 9.28332 33.1928 8.8928C33.5833 8.50227 34.2165 8.50227 34.607 8.8928L39.107 13.3928C39.4975 13.7833 39.4975 14.4165 39.107 14.807C38.7165 15.1975 38.0833 15.1975 37.6928 14.807L36.1499 13.2641L34.2269 15.1871C36.0629 17.3158 37.2455 20.0239 37.4634 22.9999H40.0999V20.3999C40.0999 19.8476 40.5476 19.3999 41.0999 19.3999C41.6522 19.3999 42.0999 19.8476 42.0999 20.3999V27.5999C42.0999 28.1522 41.6522 28.5999 41.0999 28.5999C40.5476 28.5999 40.0999 28.1522 40.0999 27.5999V24.9999H37.4634C37.2455 27.9759 36.0629 30.684 34.2269 32.8127L36.1499 34.7357L37.6928 33.1928C38.0833 32.8023 38.7165 32.8023 39.107 33.1928C39.4975 33.5833 39.4975 34.2165 39.107 34.607L34.607 39.107C34.2165 39.4975 33.5833 39.4975 33.1928 39.107C32.8023 38.7165 32.8023 38.0833 33.1928 37.6928L34.7357 36.1499L32.8127 34.2269C30.684 36.0629 27.9759 37.2455 24.9999 37.4634V40.0999H27.5999C28.1522 40.0999 28.5999 40.5476 28.5999 41.0999C28.5999 41.6522 28.1522 42.0999 27.5999 42.0999H20.3999C19.8476 42.0999 19.3999 41.6522 19.3999 41.0999C19.3999 40.5476 19.8476 40.0999 20.3999 40.0999H22.9999V37.4634C20.0239 37.2455 17.3158 36.0629 15.1871 34.2269L13.2641 36.1499L14.807 37.6928C15.1975 38.0833 15.1975 38.7165 14.807 39.107C14.4165 39.4975 13.7833 39.4975 13.3928 39.107L8.8928 34.607C8.50227 34.2165 8.50227 33.5833 8.8928 33.1928C9.28332 32.8023 9.91649 32.8023 10.307 33.1928L11.8499 34.7357L13.7729 32.8127C11.9369 30.684 10.7543 27.9759 10.5364 24.9999H7.8999L7.8999 27.5999C7.8999 28.1522 7.45219 28.5999 6.8999 28.5999C6.34762 28.5999 5.8999 28.1522 5.8999 27.5999V20.3999C5.8999 19.8476 6.34762 19.3999 6.8999 19.3999C7.45219 19.3999 7.8999 19.8476 7.8999 20.3999L7.8999 22.9999H10.5364C10.7543 20.0239 11.9369 17.3158 13.7729 15.1871L11.8499 13.2641L10.307 14.807C9.91649 15.1975 9.28332 15.1975 8.8928 14.807C8.50227 14.4165 8.50227 13.7833 8.8928 13.3928L13.3928 8.8928C13.7833 8.50227 14.4165 8.50227 14.807 8.8928C15.1975 9.28332 15.1975 9.91648 14.807 10.307L13.2641 11.8499L15.1871 13.7729C17.3158 11.9369 20.0239 10.7543 22.9999 10.5364V7.8999H20.3999C19.8476 7.8999 19.3999 7.45219 19.3999 6.8999ZM30.7499 24.8999C31.4955 24.8999 32.0999 24.2955 32.0999 23.5499C32.0999 22.8043 31.4955 22.1999 30.7499 22.1999C30.0043 22.1999 29.3999 22.8043 29.3999 23.5499C29.3999 24.2955 30.0043 24.8999 30.7499 24.8999ZM25.7999 30.7499C25.7999 31.4955 25.1955 32.0999 24.4499 32.0999C23.7043 32.0999 23.0999 31.4955 23.0999 30.7499C23.0999 30.0043 23.7043 29.3999 24.4499 29.3999C25.1955 29.3999 25.7999 30.0043 25.7999 30.7499ZM20.3999 23.0999C21.8911 23.0999 23.0999 21.8911 23.0999 20.3999C23.0999 18.9087 21.8911 17.6999 20.3999 17.6999C18.9087 17.6999 17.6999 18.9087 17.6999 20.3999C17.6999 21.8911 18.9087 23.0999 20.3999 23.0999Z" fill="black"/>
</svg>

<svg
  xmlns="http://www.w3.org/2000/svg"
  width="24"
  height="24"
  viewBox="0 0 24 24"
  fill="none"
  stroke="currentColor"
  stroke-width="2"
  stroke-linecap="round"
  stroke-linejoin="round"
>
  <path
    fill-rule="evenodd"
    d="M19.4 6.9a1 1 0 0 1 1-1h7.2a1 1 0 1 1 0 2H25v2.636c2.976.218 5.684 1.4 7.813 3.237l1.923-1.923-1.543-1.543a1 1 0 0 1 1.414-1.414l4.5 4.5a1 1 0 0 1-1.414 1.414l-1.543-1.543-1.923 1.923A13.44 13.44 0 0 1 37.463 23H40.1v-2.6a1 1 0 1 1 2 0v7.2a1 1 0 1 1-2 0V25h-2.637a13.44 13.44 0 0 1-3.236 7.813l1.923 1.923 1.543-1.543a1 1 0 0 1 1.414 1.414l-4.5 4.5a1 1 0 0 1-1.414-1.414l1.543-1.543-1.923-1.923A13.44 13.44 0 0 1 25 37.463V40.1h2.6a1 1 0 1 1 0 2h-7.2a1 1 0 1 1 0-2H23v-2.637a13.44 13.44 0 0 1-7.813-3.236l-1.923 1.923 1.543 1.543a1 1 0 0 1-1.414 1.414l-4.5-4.5a1 1 0 1 1 1.414-1.414l1.543 1.543 1.923-1.923A13.44 13.44 0 0 1 10.536 25H7.9v2.6a1 1 0 1 1-2 0v-7.2a1 1 0 1 1 2 0V23h2.636a13.44 13.44 0 0 1 3.237-7.813l-1.923-1.923-1.543 1.543a1 1 0 0 1-1.414-1.414l4.5-4.5a1 1 0 1 1 1.414 1.414l-1.543 1.543 1.923 1.923A13.44 13.44 0 0 1 23 10.536V7.9h-2.6a1 1 0 0 1-1-1m11.35 18a1.35 1.35 0 1 0 0-2.7 1.35 1.35 0 0 0 0 2.7m-4.95 5.85a1.35 1.35 0 1 1-2.7 0 1.35 1.35 0 0 1 2.7 0m-5.4-7.65a2.7 2.7 0 1 0 0-5.4 2.7 2.7 0 0 0 0 5.4"
    clip-rule="evenodd"
  />
</svg>
